X: 254
T:Fisherman';s Island, The
T:Reavy's \#9
M:C|
L:1/8
C:Ed Reavy
R:reel
Z:id:hn-reel-86
K:D
DEFA d2dA|BAGB AFDF|GEED EFGA|(3Bcd ed cAAg|
fd~d2 ecAc|~d3A BAGF|EFGA (3Bcd ed|1 cAGE EDCE:|2 cAGE EDD2||
|:fd~d2 AF~F2|DFAd f2ef|gece bece|dfed cAGE|
DF~F2 Adfd|Bg~g2 edcB|Adfa gbed|1 cAGE EDD2:|2 cAGE EDCE||

